!!!COM: Music21
!!!OTL: Na Eira
!!!OMV: pezas_polca_na-eira_na-eira-partitura.musicxml
**kern
*part1
*staff1
*I"Bagpipes
*I'Bag
*clefG^2
*k[]
*M2/4
=1
!LO:TX:a:t=Prestissimo
*MM200
!LO:TX:a:t=[quarter]=200
4r
12cccL
12ddd
12cccJ
=
12bbL
12ccc
12bbJ
12aaL
12bb
12aaJ
=||
12ggL
12aa
12ggJ
12ffL
12gg
12ffJ
=
12eeL
12ff
12eeJ
12ddL
12ee
12ddJ
=
4cc
12ggL
12aa
12ggJ
=
12ffL
12gg
12ffJ
12eeL
12ff
12eeJ
=
4dd
12aaL
12bb
12aaJ
!!linebreak:original
=
12ggL
12aa
12ggJ
12ffL
12gg
12ffJ
!!linebreak:original
=
4ee
12cccL
12ddd
12cccJ
=
12bbL
12ccc
12bbJ
12aaL
12bb
12aaJ
=
12ggL
12aa
12ggJ
12ffL
12gg
12ffJ
=
12eeL
12ff
12eeJ
12ddL
12ee
12ddJ
=
4cc
12ggL
12aa
12ggJ
=
12ffL
12gg
12ffJ
12eeL
12ff
12eeJ
=
8ddL
8eeJ
8ffL
8ddJ
=
4ee
4ee
!!linebreak:original
=
4ee
12cccL
12ddd
12cccJ
!!linebreak:original
=
12bbL
12ccc
12bbJ
12aaL
12bb
12aaJ
=||
12ggL
12aa
12ggJ
12ffL
12gg
12ffJ
=
12eeL
12ff
12eeJ
12ddL
12ee
12ddJ
=
4cc
12ggL
12aa
12ggJ
=
12ffL
12gg
12ffJ
12eeL
12ff
12eeJ
=
4dd
12aaL
12bb
12aaJ
=
12ggL
12aa
12ggJ
12ffL
12gg
12ffJ
!!linebreak:original
=
4ee
12cccL
12ddd
12cccJ
=
12bbL
12ccc
12bbJ
12aaL
12bb
12aaJ
=
12ggL
12aa
12ggJ
12ffL
12gg
12ffJ
=
12eeL
12ff
12eeJ
12ddL
12ee
12ddJ
=
4cc
12ggL
12aa
12ggJ
=
12ffL
12gg
12ffJ
12eeL
12ff
12eeJ
=
8ddL
8eeJ
8ffL
8ddJ
=
4ee
4ee
=
2ee
!!pagebreak:original
=
4gg
8ggL
8eeJ
=||
4gg
8ggL
8eeJ
=
4ff
4ff
=
8ddL
8eeJ
8ffL
8ggJ
=
4aa
8aaL
8ffJ
=
4aa
8aaL
8ffJ
=
4gg
4gg
=
2ee
=
4gg
8ggL
8eeJ
=
4gg
8ggL
8eeJ
=
4ff
4ff
!!linebreak:original
=
8ddL
8eeJ
8ffL
8ggJ
=
4ff
4ff
=||
8ddL
8eeJ
8ffL
8ddJ
=
4ee
4ee
=
2ee
=
4gg
8ggL
8eeJ
=||
4gg
8ggL
8eeJ
=
4ff
4ff
=
8ddL
8eeJ
8ffL
8ggJ
=
4aa
8aaL
8ffJ
=
4aa
8aaL
8ffJ
=
4gg
4gg
!!linebreak:original
=
2ee
=
4gg
8ggL
8eeJ
=
4gg
8ggL
8eeJ
=
4ff
4ff
!!linebreak:original
=
8ddL
8eeJ
8ffL
8ggJ
=
4ff
4ff
=||
8ddL
8eeJ
8ffL
8ddJ
=
4ee
4ee
=
4ee
12cccL
12ddd
12cccJ
=
12bbL
12ccc
12bbJ
12aaL
12bb
12aaJ
=||
8ddL
8eeJ
8ffL
8ddJ
=
4ee
4gg
=
8ccc
8r
4r
==
*-
!!!system-decoration: s1,s2
